!! 00000] TT[WS
!!!OTL: Juan Xipian
!!!ARE: Asia, China,ÿShanxi Dingxiang
!! Ethnic Group: Han
!! WI, 156 (2)
!!!SCT: J0188
!!!YEM: Copyright 1995, estate of Helmut Schaffrath.
**kern
*ICvox
*Ivox
*M2/4
*k[f#]
*G:
{8dd
8dd
8ee
16dd
16gg
=1
16gg
16ee
16dd
16ee
4dd
=2
8b
16a
16e
8g
16a
16b
=3
16g
16a
8e
4d}
=4
{8b
16a
16b
4dd
=5
8b
16a
16e
8g
16a
16b
=6
8g
16a
16e
16d
16B
16d
16e
=7
2g}
==
!!!AGN: Xiaodiao. Qingge
!!!ONB: ESAC (Essen Associative Code) Database: CHINA
!!!AMT: simple duple
!!!AIN: vox
!!!EED: Helmut Schaffrath
!!!EEV: 1.0
*-
